src/build/icons/LineIcons/play.svg

<svg width="36" height="36" version="1.1" viewBox="-2 -1 34 34" xmlns="http://www.w3.org/2000/svg">
 <g fill="none" fill-rule="evenodd">
  <g transform="translate(-413,-567)" fill="#f00">
   <path d="m418.98 594.25v-22.525l17.848 11.262zm19.221-12.711-18.81-12.257c-1.116-0.607-2.394-0.336-2.394 1.638v24.135c0 1.96 1.371 2.309 2.394 1.637l18.81-12.256c1.084-0.768 1.054-2.191 0-2.897z"/>
  </g>
 </g>
</svg>

<svg width="30px" height="36px" viewBox="0 0 30 36" version="1.1" xmlns="http://www.w3.org/2000/svg" xmlns:xlink="http://www.w3.org/1999/xlink">
    <defs>
        <filter x="-1.7%" y="-0.9%" width="103.4%" height="101.8%" filterUnits="objectBoundingBox" id="filter-1">
            <feOffset dx="0" dy="2" in="SourceAlpha" result="shadowOffsetOuter1"></feOffset>
            <feGaussianBlur stdDeviation="2" in="shadowOffsetOuter1" result="shadowBlurOuter1"></feGaussianBlur>
            <feColorMatrix values="0 0 0 0 0   0 0 0 0 0   0 0 0 0 0  0 0 0 0.5 0" type="matrix" in="shadowBlurOuter1" result="shadowMatrixOuter1"></feColorMatrix>
            <feMerge>
                <feMergeNode in="shadowMatrixOuter1"></feMergeNode>
                <feMergeNode in="SourceGraphic"></feMergeNode>
            </feMerge>
        </filter>
    </defs>
    <g id="Page-1" stroke="none" stroke-width="1" fill="none" fill-rule="evenodd">
        <g id="Icon-Set" filter="url(#filter-1)" transform="translate(-413.000000, -567.000000)" fill="#FFFFFE">
            <path d="M418.983,594.247 L418.983,571.722 L436.831,582.984 L418.983,594.247 L418.983,594.247 Z M438.204,581.536 L419.394,569.279 C418.278,568.672 417,568.943 417,570.917 L417,595.052 C417,597.012 418.371,597.361 419.394,596.689 L438.204,584.433 C439.288,583.665 439.258,582.242 438.204,581.536 L438.204,581.536 Z" id="Fill-126"></path>
        </g>
    </g>
</svg>
